tde/widget/battery/icons/battery-positive.dark.svg

﻿<?xml version="1.0" encoding="utf-8"?>
<!DOCTYPE svg PUBLIC "-//W3C//DTD SVG 1.1//EN" "http://www.w3.org/Graphics/SVG/1.1/DTD/svg11.dtd">
<svg xmlns="http://www.w3.org/2000/svg" xmlns:xlink="http://www.w3.org/1999/xlink" version="1.1" baseProfile="full" width="240" height="240" viewBox="0 0 24.00 24.00" enable-background="new 0 0 24.00 24.00" xml:space="preserve">
	<path fill="#000000FFF" fill-opacity="1" stroke-width="0.2" stroke-linejoin="round" d="M 11.667,4C 12.4033,4 13,4.59701 13,5.33301L 13,20.667C 13,21.403 12.4033,22 11.667,22L 2.33299,22C 1.59668,22 1,21.403 1,20.667L 1,5.33301C 1,4.59701 1.59668,4 2.33299,4L 4,4L 4.0006,2.00196L 10,2L 10,4L 11.667,4 Z M 23.0006,14.002L 20.0006,14.0019L 20.0006,17.002L 18.0006,17.002L 18.0006,14.0019L 15.0006,14.002L 15.0006,12.002L 18.0006,12.0019L 18.0006,9.00196L 20.0006,9.00196L 20.0006,12.0019L 23.0006,12.002L 23.0006,14.002 Z M 3,13L 11,13L 11,6L 3,6L 3,13 Z "/>
</svg>

<svg xmlns="http://www.w3.org/2000/svg" baseProfile="full" width="240" height="240" viewBox="0 0 24 24" xml:space="preserve"><path fill="#000000FFF" d="M11.667 4C12.403 4 13 4.597 13 5.333v15.334c0 .736-.597 1.333-1.333 1.333H2.333A1.333 1.333 0 0 1 1 20.667V5.333C1 4.597 1.597 4 2.333 4H4V2.002L10 2v2h1.667zm11.334 10.002h-3v3h-2v-3h-3v-2h3v-3h2v3h3v2zM3 13h8V6H3v7z"/></svg>
